X:430
T: High Road to Dublin
T: B\'othar M\'or go Baile \'Atha Cliath
S: B.Breathnach: "Ceol Rince na hEireann" II/97
Z: B.Black
L: 1/8
M: 9/8
R: slipjig
K: D
G2A Bee Bee|GFG BGd AFD|G2A Bee Bee|dcd A2G FED :|
d2e fdf ecA|d2e fdf gec|d2e fdf ecA|Bcd AdG FED|
d2e fdf ecA|d2e fdf gec|d2e fga ecA|Bcd AdG FED||

